X: 25953
T: Maurice O'Keeffe's
R: polka
M: 2/4
K: Gmajor
|:G>e dB|G2 Ge|dB eB|BA AB/A/|
G>e dB|G2 Ge|dB gB|1 BG GB/A/:|2 BG G2||
|:GB de/d/|Bd g2|GB de/d/|cB AG|
GB de/d/|Bd g2|dB AG/A/|1 BG G2:|2 BG GB/A/||

